X:117
T:The Broken Smile
M:6/8
L:1/8
C:© Paul Gitlitz 2003
R:Jig
B:Hunters and Gatherers
K:D
"D"FED FED|"G"BAG "D"A3|FED FED|"Bm"BAF "A"E3|!
"D"FED FED|"F#m"ABc "G"d2e|"D/A"fed "Em/B"edB|"A7/C#"AFE "D"D3:|!
|:"D"ABd "(Bm)"BAF|"D"ABd "D/F#"f3|"D"ABd "Bm"BAF|"Bm/F#"BAF "A"E3|!
"D"ABd "(Bm)"BAF|"D"ABc "D/F#"d2f/g/|"D"afd "Em"edB|"A"edc "D"d3:|]
